X: 4
T: The Lads Of Laois
R: reel
M: 4/4
L: 1/8
K: Emin
B,EEF E/F/G FE | A,DDE D/E/F ED | GFED EFGA | Bedc B2 E2 :|eB BA/B/ gfed | Adfa gfed | eB BA/B/ gfed | g>bag f2 ed |eB BA/B/ gfed | Adfa gfed | g>bge fafd | gfed e2 E2 ||


Tune 58	Setting 12495

